!!!COM: Palestrina, Giovanni Perluigi da
!!!OPR: Missa O magnum mysterium
!!!OMD: Credo
!!!OTL: Et resurrexit
**kern	**kern	**kern	**kern
*Itenor	*Icalto	*Icalto	*Icant
!Tenor	!Altus 2	!Altus 1	!Cantus
*clefGv2	*clefG2	*clefG2	*clefG2
*k[]	*k[]	*k[]	*k[]
*E:phr	*E:phr	*E:phr	*E:phr
*M3/2	*M3/2	*M3/2	*M3/2
=104	=104	=104	=104
2c	2e	2g	2c
2c	2e	2g	2r
2B	2d	2g	2r
=105	=105	=105	=105
1A	1c	1f	1r
2G#	2B	2e	2r
=106	=106	=106	=106
1A	2c	2.f	2cc
.	2A	.	2cc
.	.	8e	.
.	.	8d	.
2G	2B	2e	2b
=107	=107	=107	=107
2F	2d	2A	1a
1E	1e	1B	.
.	.	.	2g#
=108	=108	=108	=108
1D	2f	2.d	1a
.	2f	.	.
.	.	4A	.
2r	2e	2c	2g
=109	=109	=109	=109
1r	1d	2d	2f
.	.	1A	1e
2r	2c#	.	.
=110	=110	=110	=110
1r	1d	1f	4d
.	.	.	4e
.	.	.	4f
.	.	.	4g
2r	2d	2f	4a
.	.	.	4b-
=111	=111	=111	=111
1r	2c	2e	2.a
.	1B	1d	.
.	.	.	8g
.	.	.	8f#
2r	.	.	2g#
=112	=112	=112	=112
1c	1A	2e	1a
.	.	2r	.
2B	2d	2g	2r
=113	=113	=113	=113
1A	2.c	2f	1cc
.	.	2.e	.
.	4A	.	.
2G#	2B	.	2b
.	.	4d	.
=114	=114	=114	=114
2A	2e	2c	1a
2D	2f	2d	.
2E	2e	2B	2g#
=115	=115	=115	=115
1F	2d	2A	2.a
.	2c	2A	.
.	.	.	4g
2D	[2d	4B	[2f
.	.	4A	.
=116	=116	=116	=116
2D	4d]	2.A	2f]
.	4c	.	.
1E	1B	.	1e
.	.	8G	.
.	.	8F#	.
.	.	2G#	.
*-	*-	*-	*-
!!!CDT: 1525/^1526/-1594/2/2
!!!OCY: Italia
!!!AGN: Mass (Parody)
!!!AST: renaissance, vocal
!!!ASW: Motet 1569 (Palestrina)
!!!PWK: Masses, Book 4
!!!RNB: Cadence finals: A,C,G,F
!!!YOR: Le Opere Complete, v. 10, p. 150
!!!YOO: Rome, Italy: Fratelli Scalera
!!!END: 1992//
!!!EED: John Miller
!!!YEC: Copyright 2000, John Miller
!!!YEN: United States of America
!!!YEM: Rights to all derivative electronic formats reserved.
!!!YEM: Refer to licensing agreement for further details.
!!!YEM: This file must be accompanied by the licensing agreement.
!!!YEM: A copy of the licensing agreement may be found at http://www.music-cog.ohio-state.edu/HumdrumDatabases/Palestrina/license.txt
!!!EMD: converted to Humdrum by Bret Aarden
